X: 4
T: The Destitution
R: reel
M: 4/4
L: 1/8
K: Emin
|:E2BE dEBE|dcBc AcBG|E2BE dEBE|AGFG AcBG|
E2BE dEBE|dcBc AcBG|EGFA GBAc|BAFG E3D:||
|:Be e2 Bege|Be e2 fg a2|Be e2 Bege|BcBA BEE2|
Be e2 Bege|Be e2 fg a2|bgaf gefd|BcBA BEED:||


Tune 673	Setting 13719

